icons/alcohol.svg

<svg width="48" height="48" viewBox="0 0 48 48" fill="none" xmlns="http://www.w3.org/2000/svg">
<path fill-rule="evenodd" clip-rule="evenodd" d="M18 6H16V17.215C16 17.8884 15.7529 18.5384 15.3055 19.0417C13.1762 21.4372 12 24.5308 12 27.7358V41.4571C12 41.7569 12.2431 42 12.5429 42H21.4571C21.7569 42 22 41.7569 22 41.4571V27.7358C22 24.5308 20.8238 21.4372 18.6945 19.0417C18.2471 18.5384 18 17.8884 18 17.215V6ZM18 4C19.1046 4 20 4.89543 20 6V17.215C20 17.3986 20.0674 17.5758 20.1893 17.713C22.6441 20.4746 24 24.0409 24 27.7358V41.4571C24 42.8615 22.8615 44 21.4571 44H12.5429C11.1385 44 10 42.8615 10 41.4571V27.7358C10 24.0409 11.3559 20.4746 13.8107 17.713C13.9326 17.5758 14 17.3986 14 17.215V6C14 4.89543 14.8954 4 16 4H18Z" fill="black"/>
<path fill-rule="evenodd" clip-rule="evenodd" d="M22 30H12V36H22V30ZM10 28V38H24V28H10Z" fill="black"/>
<path fill-rule="evenodd" clip-rule="evenodd" d="M28.9988 18L28.1756 25.7477C27.9342 28.0198 29.7151 30 32 30C34.2849 30 36.0658 28.0198 35.8244 25.7477L35.0012 18H28.9988ZM36.8 16H27.2L26.1868 25.5364C25.8198 28.99 28.527 32 32 32C35.473 32 38.1802 28.99 37.8132 25.5364L36.8 16Z" fill="black"/>
<path fill-rule="evenodd" clip-rule="evenodd" d="M31 43V31H33V43H31Z" fill="black"/>
<path fill-rule="evenodd" clip-rule="evenodd" d="M27 43C27 42.4477 27.4477 42 28 42H36C36.5523 42 37 42.4477 37 43C37 43.5523 36.5523 44 36 44H28C27.4477 44 27 43.5523 27 43Z" fill="black"/>
<path fill-rule="evenodd" clip-rule="evenodd" d="M36.5 26H27.5V24H36.5V26Z" fill="black"/>
</svg>

<svg
  xmlns="http://www.w3.org/2000/svg"
  width="24"
  height="24"
  viewBox="0 0 24 24"
  fill="none"
  stroke="currentColor"
  stroke-width="2"
  stroke-linecap="round"
  stroke-linejoin="round"
>
  <path
    fill-rule="evenodd"
    d="M18 6h-2v11.215a2.75 2.75 0 0 1-.694 1.827A13.1 13.1 0 0 0 12 27.736v13.721c0 .3.243.543.543.543h8.914c.3 0 .543-.243.543-.543V27.736c0-3.205-1.176-6.299-3.305-8.694A2.75 2.75 0 0 1 18 17.215zm0-2a2 2 0 0 1 2 2v11.215c0 .184.067.36.19.498A15.1 15.1 0 0 1 24 27.736v13.721A2.543 2.543 0 0 1 21.457 44h-8.914A2.543 2.543 0 0 1 10 41.457V27.736c0-3.695 1.356-7.261 3.81-10.023a.75.75 0 0 0 .19-.498V6a2 2 0 0 1 2-2z"
    clip-rule="evenodd"
  />
  <path
    fill-rule="evenodd"
    d="M22 30H12v6h10zm-12-2v10h14V28z"
    clip-rule="evenodd"
  />
  <path
    fill-rule="evenodd"
    d="m28.999 18-.823 7.748a3.846 3.846 0 1 0 7.648 0L35.001 18zm7.801-2h-9.6l-1.013 9.536a5.846 5.846 0 1 0 11.626 0z"
    clip-rule="evenodd"
  />
  <path fill-rule="evenodd" d="M31 43V31h2v12z" clip-rule="evenodd" />
  <path
    fill-rule="evenodd"
    d="M27 43a1 1 0 0 1 1-1h8a1 1 0 1 1 0 2h-8a1 1 0 0 1-1-1"
    clip-rule="evenodd"
  />
  <path fill-rule="evenodd" d="M36.5 26h-9v-2h9z" clip-rule="evenodd" />
</svg>
